icon-themes/breeze_svg/cmd/32/smallestheight.svg

<svg viewBox="0 0 32 32" xmlns="http://www.w3.org/2000/svg"><path d="m4 4v5l.2070312.2929688 3.7929688 3.7929692v-9.085938zm5 0v9.085938l3.792969-3.7929692.207031-.2929688v-5zm-5 6.5v17.5h9v-17.5l-3.5 3.5-1 1-1-1zm13 6.5v11h11v-1.833984-9.166016h-9.166016z" fill="#4d4d4d"/></svg>

<svg xmlns="http://www.w3.org/2000/svg" viewBox="0 0 32 32">
 <path 
     style="fill:#4d4d4d" 
     d="M 4 4 L 4 9 L 4.2070312 9.2929688 L 8 13.085938 L 8 4 L 4 4 z M 9 4 L 9 13.085938 L 12.792969 9.2929688 L 13 9 L 13 4 L 9 4 z M 4 10.5 L 4 28 L 13 28 L 13 10.5 L 9.5 14 L 8.5 15 L 7.5 14 L 4 10.5 z M 17 17 L 17 28 L 28 28 L 28 26.166016 L 28 17 L 18.833984 17 L 17 17 z "
     />
</svg>
